X:581
T:Paddy Fahy's
T:Paddy Fahey's
R:reel
C:Paddy Fahy
H:See also #622
Z:id:hn-reel-581
M:C|
K:G
G,2B,D GBdB | c2ag fgdc | BGGA BcdB | cAFA GDB,A, |
G,2B,D GBdB | c2ag fgdc | BGGA BcdB |1 cAFA G2B,A, :|2 cAFA G2Bc ||
|: dggf gdBG | FGAB c2Bc | Aaag abag | fddB Adfa |
g2fa gdBG | FGAB c2Bc | dggf d2ed |1 cAFA G2Bc :|2 cAFA G2B,A, ||
P:variations
|: G,2B,D GBdB | c2ag fgdc | BG~G2 BcdB | cAFD EDCA, |
G,2B,D GBdB | c2ag fgdc | BG~G2 BcdB |1 cAFA G2B,A, :|2 cAFA G2Bd ||
|: g2fa gdBG | (3EFG AB c2cB | Aaa^g aba=g | fd~d2 adfa |
g2fa gdBG | (3EFG AB c2Bc | dggf dgfd |1 cAFA G2Bd :|2 cAFA G2B,A, ||

